svgs/solid/h1.svg

<svg xmlns="http://www.w3.org/2000/svg" viewBox="0 0 576 512"><!--! Font Awesome Pro 6.1.1 by @fontawesome - https://fontawesome.com License - https://fontawesome.com/license (Commercial License) Copyright 2022 Fonticons, Inc. --><path d="M544 384h-32v-288c0-11.09-5.75-21.38-15.17-27.22c-9.438-5.844-21.23-6.344-31.14-1.406l-64 32c-15.81 7.906-22.22 27.12-14.31 42.94c7.906 15.78 27.09 22.16 42.94 14.31L448 147.8v236.2h-32c-17.67 0-32 14.31-32 32s14.33 32 32 32h128c17.67 0 32-14.31 32-32S561.7 384 544 384zM288 64.01c-17.67 0-32 14.31-32 32v128H64v-128c0-17.69-14.33-32-32-32s-32 14.31-32 32v320c0 17.69 14.33 32 32 32s32-14.31 32-32v-128h192v128c0 17.69 14.33 32 32 32s32-14.31 32-32v-320C320 78.33 305.7 64.01 288 64.01z"/></svg>

<svg xmlns="http://www.w3.org/2000/svg" viewBox="0 0 576 512"><!--! Font Awesome Pro 6.4.2 by @fontawesome - https://fontawesome.com License - https://fontawesome.com/license (Commercial License) Copyright 2023 Fonticons, Inc. --><path d="M64 96c0-17.7-14.3-32-32-32S0 78.3 0 96V256 416c0 17.7 14.3 32 32 32s32-14.3 32-32V288H256V416c0 17.7 14.3 32 32 32s32-14.3 32-32V256 96c0-17.7-14.3-32-32-32s-32 14.3-32 32V224H64V96zm448 0c0-11.1-5.7-21.4-15.2-27.2s-21.2-6.4-31.1-1.4l-64 32c-15.8 7.9-22.2 27.1-14.3 42.9s27.1 22.2 42.9 14.3l17.7-8.8V384H416c-17.7 0-32 14.3-32 32s14.3 32 32 32h64 64c17.7 0 32-14.3 32-32s-14.3-32-32-32H512V96z"/></svg>
